icons/speech-bubbles-24.svg

<svg xmlns="http://www.w3.org/2000/svg" viewBox="0 0 24 24"><title>speech-bubbles-24</title><g id="icons"><path d="M6,6H16V7H6ZM6,9v1h7V9Zm1,7.51855V13H4a1.001,1.001,0,0,1-1-1V4A1.001,1.001,0,0,1,4,3H18a1.001,1.001,0,0,1,1,1v6h1V4a2.00229,2.00229,0,0,0-2-2H4A2.00229,2.00229,0,0,0,2,4v8a2.00229,2.00229,0,0,0,2,2H6v4.48145l3-2.18158v-1.236ZM13,14v1h7V14Zm0,3h5V16H13Zm8-6a2.00229,2.00229,0,0,1,2,2v5a2.00229,2.00229,0,0,1-2,2H20v3.5L15.3335,20H12a2.00229,2.00229,0,0,1-2-2V13a2.00229,2.00229,0,0,1,2-2Zm0,1H12a1.001,1.001,0,0,0-1,1v5a1.001,1.001,0,0,0,1,1h3.6665L19,21.5V19h2a1.001,1.001,0,0,0,1-1V13A1.001,1.001,0,0,0,21,12Z"/></g></svg>

<svg xmlns="http://www.w3.org/2000/svg" viewBox="0 0 24 24"><path d="M6 6h10v1H6zm0 3v1h7V9zm1 7.519V13H4a1.001 1.001 0 01-1-1V4a1.001 1.001 0 011-1h14a1.001 1.001 0 011 1v6h1V4a2.002 2.002 0 00-2-2H4a2.002 2.002 0 00-2 2v8a2.002 2.002 0 002 2h2v4.481L9 16.3v-1.236zM13 14v1h7v-1zm0 3h5v-1h-5zm8-6a2.002 2.002 0 012 2v5a2.002 2.002 0 01-2 2h-1v3.5L15.334 20H12a2.002 2.002 0 01-2-2v-5a2.002 2.002 0 012-2zm0 1h-9a1.001 1.001 0 00-1 1v5a1.001 1.001 0 001 1h3.667L19 21.5V19h2a1.001 1.001 0 001-1v-5a1.001 1.001 0 00-1-1z"/></svg>
